img/svg/personal-profile.svg

<svg width="78" height="78" viewBox="0 0 78 78" fill="none" xmlns="http://www.w3.org/2000/svg">
<path d="M66.7266 0H11.2734C8.75337 0 6.70312 2.05024 6.70312 4.57031V73.4297C6.70312 75.9498 8.75337 78 11.2734 78H66.7266C69.2466 78 71.2969 75.9498 71.2969 73.4297V4.57031C71.2969 2.05024 69.2466 0 66.7266 0ZM57.4336 5.39845L65.9178 13.8826H58.957C58.117 13.8826 57.4336 13.1992 57.4336 12.3592V5.39845ZM68.25 73.4297C68.25 74.2697 67.5666 74.9531 66.7266 74.9531H11.2734C10.4334 74.9531 9.75 74.2697 9.75 73.4297V4.57031C9.75 3.73029 10.4334 3.04688 11.2734 3.04688H54.3867V12.3592C54.3867 14.8793 56.437 16.9295 58.957 16.9295H68.25V73.4297ZM68.25 11.9058L59.3911 3.04688H66.7266C67.5666 3.04688 68.25 3.73029 68.25 4.57031V11.9058Z" fill="white"/>
<path d="M62.1104 28.6406H45.1367C44.2953 28.6406 43.6133 29.3227 43.6133 30.1641C43.6133 31.0055 44.2953 31.6875 45.1367 31.6875H62.1104C62.9518 31.6875 63.6338 31.0055 63.6338 30.1641C63.6338 29.3227 62.9518 28.6406 62.1104 28.6406Z" fill="white"/>
<path d="M46.2135 21.7745C45.9301 21.4911 45.5371 21.3281 45.1364 21.3281C44.7357 21.3281 44.3427 21.4911 44.0593 21.7745C43.776 22.0579 43.613 22.4509 43.613 22.8516C43.613 23.2522 43.776 23.6453 44.0593 23.9286C44.3427 24.212 44.7357 24.375 45.1364 24.375C45.5371 24.375 45.9301 24.212 46.2135 23.9286C46.4968 23.6453 46.6599 23.2522 46.6599 22.8516C46.6599 22.4509 46.4968 22.0579 46.2135 21.7745Z" fill="white"/>
<path d="M62.1104 21.3281H51.2189C50.3775 21.3281 49.6954 22.0102 49.6954 22.8516C49.6954 23.693 50.3775 24.375 51.2189 24.375H62.1104C62.9518 24.375 63.6338 23.693 63.6338 22.8516C63.6338 22.0102 62.9518 21.3281 62.1104 21.3281Z" fill="white"/>
<path d="M62.1104 35.9531H45.6064C44.765 35.9531 44.0829 36.6352 44.0829 37.4766C44.0829 38.318 44.765 39 45.6064 39H62.1102C62.9516 39 63.6337 38.318 63.6337 37.4766C63.6337 36.6352 62.9518 35.9531 62.1104 35.9531Z" fill="white"/>
<path d="M62.5019 43.2656H15.8896C15.0482 43.2656 14.3662 43.9477 14.3662 44.7891C14.3662 45.6305 15.0482 46.3125 15.8896 46.3125H62.5019C63.3433 46.3125 64.0254 45.6305 64.0254 44.7891C64.0254 43.9477 63.3433 43.2656 62.5019 43.2656Z" fill="white"/>
<path d="M62.1102 50.5781H15.8896C15.0482 50.5781 14.3662 51.2602 14.3662 52.1016C14.3662 52.943 15.0482 53.625 15.8896 53.625H62.1102C62.9516 53.625 63.6337 52.943 63.6337 52.1016C63.6337 51.2602 62.9516 50.5781 62.1102 50.5781Z" fill="white"/>
<path d="M62.5019 57.8906H15.8896C15.0482 57.8906 14.3662 58.5727 14.3662 59.4141C14.3662 60.2555 15.0482 60.9375 15.8896 60.9375H62.5019C63.3433 60.9375 64.0254 60.2555 64.0254 59.4141C64.0254 58.5727 63.3433 57.8906 62.5019 57.8906Z" fill="white"/>
<path d="M63.5791 65.6495C63.2958 65.3661 62.9027 65.2031 62.5021 65.2031C62.1014 65.2031 61.7084 65.3661 61.425 65.6495C61.1416 65.9329 60.9786 66.3259 60.9786 66.7266C60.9786 67.1272 61.1416 67.5203 61.425 67.8036C61.7084 68.087 62.1014 68.25 62.5021 68.25C62.9027 68.25 63.2958 68.087 63.5791 67.8036C63.8625 67.5203 64.0255 67.1272 64.0255 66.7266C64.0255 66.3259 63.8625 65.9329 63.5791 65.6495Z" fill="white"/>
<path d="M56.3681 65.2031H15.8896C15.0482 65.2031 14.3662 65.8852 14.3662 66.7266C14.3662 67.568 15.0482 68.25 15.8896 68.25H56.3681C57.2095 68.25 57.8916 67.568 57.8916 66.7266C57.8916 65.8852 57.2095 65.2031 56.3681 65.2031Z" fill="white"/>
<path d="M37.8075 9.75H15.4981C14.6567 9.75 13.9747 10.432 13.9747 11.2734L13.955 37.4766C13.955 38.318 14.637 39 15.4784 39H37.8075C38.6489 39 39.3309 38.318 39.3309 37.4766V11.2734C39.3309 10.432 38.6489 9.75 37.8075 9.75ZM36.284 35.9531H17.0019L17.0215 34.0136C17.2682 30.6738 20.0625 28.0312 23.4641 28.0312H29.8218C33.3851 28.0312 36.284 30.9302 36.284 34.4935V35.9531ZM24.2055 22.5469V21.5566C24.2055 20.2127 25.299 19.1191 26.643 19.1191C27.9869 19.1191 29.0805 20.2127 29.0805 21.5566V22.5469C29.0805 23.8909 27.9869 24.9844 26.643 24.9844C25.299 24.9844 24.2055 23.8909 24.2055 22.5469ZM36.284 27.5262C34.9711 26.3076 33.315 25.456 31.4783 25.1318C31.892 24.3611 32.1273 23.481 32.1273 22.5469V21.5566C32.1273 18.5325 29.6671 16.0723 26.643 16.0723C23.6188 16.0723 21.1586 18.5325 21.1586 21.5566V22.5469C21.1586 23.481 21.3939 24.3611 21.8076 25.1318C19.9802 25.4544 18.3312 26.2986 17.0215 27.5073V12.7969H36.284V27.5262Z" fill="white"/>
</svg>

<svg width="78" height="78" viewBox="0 0 78 78" fill="none" xmlns="http://www.w3.org/2000/svg"><path d="M66.727 0H11.273c-2.52 0-4.57 2.05-4.57 4.57v68.86c0 2.52 2.05 4.57 4.57 4.57h55.454c2.52 0 4.57-2.05 4.57-4.57V4.57c0-2.52-2.05-4.57-4.57-4.57zm-9.293 5.398l8.484 8.485h-6.961c-.84 0-1.523-.684-1.523-1.524V5.4zM68.25 73.43c0 .84-.683 1.523-1.523 1.523H11.273c-.84 0-1.523-.683-1.523-1.523V4.57c0-.84.683-1.523 1.523-1.523h43.114v9.312c0 2.52 2.05 4.57 4.57 4.57h9.293v56.5zm0-61.524l-8.859-8.86h7.336c.84 0 1.523.684 1.523 1.524v7.336z" fill="#fff"/><path d="M62.11 28.64H45.137a1.523 1.523 0 0 0 0 3.047H62.11a1.523 1.523 0 1 0 0-3.046zm-15.896-6.866a1.535 1.535 0 0 0-1.078-.446c-.4 0-.793.163-1.077.447a1.535 1.535 0 0 0-.446 1.077c0 .4.163.793.446 1.077.284.283.677.446 1.077.446.401 0 .794-.163 1.078-.446.283-.284.446-.677.446-1.077 0-.401-.163-.794-.446-1.078zm15.896-.446H51.22a1.524 1.524 0 0 0 0 3.047h10.89a1.523 1.523 0 1 0 0-3.047zm0 14.625H45.606a1.524 1.524 0 0 0 0 3.047H62.11a1.523 1.523 0 0 0 0-3.047zm.392 7.313H15.89a1.523 1.523 0 0 0 0 3.047h46.612a1.523 1.523 0 1 0 0-3.047zm-.392 7.312H15.89a1.523 1.523 0 0 0 0 3.047h46.22a1.523 1.523 0 1 0 0-3.047zm.392 7.312H15.89a1.523 1.523 0 0 0 0 3.047h46.612a1.523 1.523 0 1 0 0-3.046zm1.078 7.76a1.535 1.535 0 0 0-1.078-.447c-.4 0-.794.163-1.077.447a1.535 1.535 0 0 0-.446 1.077c0 .4.163.793.446 1.077.283.283.676.446 1.077.446.4 0 .794-.163 1.077-.446.283-.284.446-.677.446-1.077 0-.401-.163-.794-.446-1.078zm-7.212-.447H15.89a1.523 1.523 0 0 0 0 3.047h40.478a1.523 1.523 0 1 0 0-3.047zM37.807 9.75H15.498c-.841 0-1.523.682-1.523 1.523l-.02 26.204c0 .841.682 1.523 1.523 1.523h22.33c.84 0 1.523-.682 1.523-1.523V11.273c0-.841-.682-1.523-1.524-1.523zm-1.523 26.203H17.002l.02-1.94a6.468 6.468 0 0 1 6.442-5.982h6.358a6.47 6.47 0 0 1 6.462 6.462v1.46zM24.206 22.547v-.99a2.44 2.44 0 0 1 2.437-2.438 2.44 2.44 0 0 1 2.438 2.438v.99a2.44 2.44 0 0 1-2.438 2.437 2.44 2.44 0 0 1-2.438-2.437zm12.078 4.98a9.485 9.485 0 0 0-4.806-2.395 5.45 5.45 0 0 0 .65-2.585v-.99a5.49 5.49 0 0 0-5.485-5.485 5.49 5.49 0 0 0-5.484 5.485v.99c0 .934.235 1.814.649 2.585a9.486 9.486 0 0 0-4.787 2.375v-14.71h19.263v14.73z" fill="#fff"/></svg>
